img/backgrounds/get-report.svg

<svg fill="none" height="911" viewBox="0 0 1241 911" width="1241" xmlns="http://www.w3.org/2000/svg"><path d="m120.39 853.327h11.7133v11.6906h-11.7133z" stroke="#d00066" stroke-width="1.95335" transform="matrix(.6760919 .73681731 -.73681731 .6760919 667.741398 187.694092)"/><path d="m213.705 905.526c-2.378 2.182-6.079 2.021-8.267-.363-2.187-2.384-2.03-6.086.348-8.267 2.377-2.182 6.078-2.021 8.266.363 2.188 2.385 2.031 6.086-.347 8.267z" stroke="#27af3a" stroke-width="1.95335"/><path d="m15.1318 728.695-1.3186 11.536-10.28824-11.212z" fill="#e8a100"/><path d="m.976677-.976677h11.7133v11.6906h-11.7133z" stroke="#d00066" stroke-width="1.95335" transform="matrix(1 0 0 -1 1136.8 11.6907)"/><path d="m1239.33 46.1316c0-3.2267-2.62-5.8453-5.85-5.8453-3.24 0-5.86 2.6186-5.86 5.8453 0 3.2268 2.62 5.8453 5.86 5.8453 3.23 0 5.85-2.6185 5.85-5.8453z" stroke="#27af3a" stroke-width="1.95335"/><path d="m974.786 19.374 7.608-8.7711h-15.217z" fill="#e8a100"/></svg>

<svg width="1241" height="911" viewBox="0 0 1241 911" fill="none" xmlns="http://www.w3.org/2000/svg">
<rect x="120.39" y="853.327" width="11.7133" height="11.6906" transform="rotate(47.461 120.39 853.327)" stroke="#D00066" stroke-width="1.95335"/>
<path d="M213.705 905.526C211.327 907.708 207.626 907.547 205.438 905.163C203.251 902.779 203.408 899.077 205.786 896.896C208.163 894.714 211.864 894.875 214.052 897.259C216.24 899.644 216.083 903.345 213.705 905.526Z" stroke="#27AF3A" stroke-width="1.95335"/>
<path d="M15.1318 728.695L13.8132 740.231L3.52496 729.019L15.1318 728.695Z" fill="#E8A100"/>
<rect x="0.976677" y="-0.976677" width="11.7133" height="11.6906" transform="matrix(1 0 0 -1 1136.8 11.6907)" stroke="#D00066" stroke-width="1.95335"/>
<path d="M1239.33 46.1316C1239.33 42.9049 1236.71 40.2863 1233.48 40.2863C1230.24 40.2863 1227.62 42.9049 1227.62 46.1316C1227.62 49.3584 1230.24 51.9769 1233.48 51.9769C1236.71 51.9769 1239.33 49.3584 1239.33 46.1316Z" stroke="#27AF3A" stroke-width="1.95335"/>
<path d="M974.786 19.374L982.394 10.6029H967.177L974.786 19.374Z" fill="#E8A100"/>
</svg>
